X:33
T:Blues for Alice
C:Charlie Parker arr. Parker Omnibook
N:TablEdited by Chris Hale Mandolin / Guitar 
L:1/8
Q:1/4=120
M:4/4
K:F
f2 cA e2 cA | de =Bd _d_B GA | z2 FD GA FE | (3_EGB d_d2F (3FGF | c2 BF _AB,2G | 
_e_d B=B cF GA | z2 EC D4 | _d2 =B_G _B3_A | (3G2f2 f2 fd BF | AG cB _e4 | c2 AF G3d | 
z2 BG A4 | 


